X:1
T:Facing the Throne
T:Facing the Throne
T:Alfred Elisha Helton
T:Stella May Thompson
T:Public Domain Courtesy of the Cyber Hymnal™
T:Public Domain Courtesy of the Cyber Hymnal™
C:Alfred Elisha Helton
Z:Public Domain
Z:Courtesy of the Cyber Hymnal™
%%score ( 1 2 ) ( 3 4 )
L:1/8
Q:1/4=90
M:4/4
K:E
V:1 treble 
V:2 treble 
V:3 bass 
V:4 bass 
V:1
 [EG][EB] | [EB]2 [EB][Ec] [EG]2 [GB][GB] | [Ac][Ad][Ae][Ac] [GB]2 [GB][Gc] | %3
w: 1.~When the|years have all flown, And you|face the judg- ment throne, Will your|
w: 2.~When you’re|fac- ing the throne Think not|then you can a- tone For the|
w: 3.~When you’re|fac- ing the throne By the|might- y Judge un- known, Then to|
 [EG][EG][EG][DF] EE[DF][EG] | [DF]6 [EG][EB] | [EB]2 [EB][Ec] [EG]2 [GB][GB] | %6
w: soul be cleansed by Je- sus’ pre- cious|blood? Fr- ee|from ev- ery stain, Know- ing|
w: sins you have com- mit- ted day by|day; While in|life, oh! pre- pare, If a|
w: an- swer for your ac- tions dark or|fair, Tho’ for|mer- cy you plead There’ll be|
 [Ac][Ad][Ae][Ac] [GB]2 [GB][Gc] | [EG][EG][EG][CF] [B,E]E[DF][DG] | [B,E]6 ||"^Refrain" (3Bcd | %10
w: not a fear nor pain, Rea- dy|to be giv’n with saints a blest a-|bode?|Fac- ing the|
w: gold- en crown you’d wear In the|land where songs of joy shall ring for|aye!||
w: none your cries to heed, End- less|sor- row with the wick- ed you must|share.||
 e6 (3cde | B6 [GB][Gc] | [EG][EG][EG][DF] EE[DF][EG] | F6 (3Bcd | e6 (3cde | B6 [GB][Gc] | %16
w: throne, tremb- ling with|fear, Wait- ing|there, O soul, e- ter- nal doom to|know; Fac- ing the|throne, no- thing to|cheer, Help- less,|
w: ||||||
w: ||||||
 [EG][EG][EG][CF] [B,E][B,E][DF][DG] | E6 |] %18
w: none to plead for you or mer- cy|show!|
w: ||
w: ||
V:2
 x2 | x8 | x8 | x4 EE x2 | x8 | x8 | x8 | x5 E x2 | x6 || x2 | (3(GGG(3GGG G2) x2 | %11
 (3(GGG(3FFF G2) x2 | x4 EE x2 | (DDDD D2) x2 | (3(GGG(3GGG G2) x2 | (3(GGG(3FFF G2) x2 | x8 | %17
 (EB,CC B,2) |] %18
V:3
 [E,B,][E,G,] | [E,G,]2 [E,G,][E,A,] [E,B,]2 [E,E][E,E] | [A,E][A,D][A,C][A,E] [E,E]2 [E,E][E,E] | %3
w: ~ ~|~ ~ ~ ~ ~ ~|~ ~ ~ ~ ~ ~ ~|
 [E,B,][E,B,][E,B,][F,B,] [G,B,][G,B,][F,B,][E,B,] | [B,,B,]6 [E,B,][E,G,] | %5
w: ~ ~ ~ ~ ~ ~ ~ ~|~ ~ ~|
 [E,G,]2 [E,G,][E,A,] [E,B,]2 [E,E][E,E] | [A,E][A,D][A,C][A,E] [E,E]2 [E,E][E,E] | %7
w: ~ ~ ~ ~ ~ ~|~ ~ ~ ~ ~ ~ ~|
 [E,B,][E,B,][E,B,][A,,A,] [B,,G,][B,,G,][B,,A,][B,,B,] | [E,G,]6 || z2 | %10
w: ~ ~ ~ ~ ~ ~ ~ ~|~||
 (3[E,B,][E,B,][E,B,] (3[C,C][C,C][C,C] [E,B,]2 z2 | %11
w: Fac- ing, when fac- ing the throne,|
 (3[E,E][E,E][E,E] (3[B,,D][B,,D][B,,D] [E,E]2 [E,E][E,E] | %12
w: Fac- ing, when fac- ing the throne, ~ ~|
 [E,B,][E,B,][E,B,][F,B,] [G,B,][G,B,][F,B,][E,B,] | [B,,B,][B,,B,][B,,B,][B,,B,] [B,,B,]2 z2 | %14
w: ~ ~ ~ ~ ~ ~ ~ e-|ter- nal doom to know,|
 (3[E,B,][E,B,][E,B,] (3[C,C][C,C][C,C] [E,B,]2 z2 | %15
w: Fac- ing, when fac- ing the throne,|
 (3[E,E][E,E][E,E] (3[B,,D][B,,D][B,,D] [E,E]2 [E,E][E,E] | %16
w: Fac- ing, when fac- ing the throne, ~ ~|
 [E,B,][E,B,][E,B,][A,,A,] [B,,G,][B,,G,][B,,A,][B,,B,] | G,G,A,A, G,2 |] %18
w: ~ ~ ~ ~ ~ ~ ~ ~|~ or mer- cy show!|
V:4
 x2 | x8 | x8 | x8 | x8 | x8 | x8 | x8 | x6 || x2 | x8 | x8 | x8 | x8 | x8 | x8 | x8 | E,6 |] %18

